dist/svg/workbench.svg

<svg width="16" height="16" viewBox="0 0 16 16" fill="rgb(34, 34, 34)" xmlns="http://www.w3.org/2000/svg"><title>workbench</title><g clip-path="url(#clip0_271_104)"><path d="M11.751 7.5C11.557 7.5 11.373 7.532 11.186 7.557L9.42499 4.917C10.074 4.414 10.499 3.635 10.499 2.75C10.499 1.231 9.26799 0 7.74899 0C6.22999 0 4.99899 1.231 4.99899 2.75C4.99899 4.269 6.22999 5.5 7.74899 5.5C8.09499 5.5 8.42299 5.429 8.72799 5.312L10.355 7.753C8.69699 8.332 7.49999 9.894 7.49999 11.75C7.49999 11.85 7.52299 11.943 7.52899 12.041H5.49499C5.49499 12.027 5.49899 12.014 5.49899 12C5.49899 10.996 4.95599 10.127 4.15199 9.647L5.84599 6.699L5.15199 6.301L3.40699 9.338C3.19499 9.286 2.97699 9.25 2.74899 9.25C1.22999 9.25 -0.00100708 10.481 -0.00100708 12C-0.00100708 13.519 1.22999 14.75 2.74899 14.75C3.97299 14.75 4.99799 13.945 5.35399 12.84H7.65799C8.14199 14.655 9.78099 16 11.749 16C14.096 16 15.999 14.097 15.999 11.75C15.999 9.403 14.096 7.5 11.749 7.5H11.751ZM7.74999 4.5C6.78499 4.5 5.99999 3.715 5.99999 2.75C5.99999 1.785 6.78499 1 7.74999 1C8.71499 1 9.49999 1.785 9.49999 2.75C9.49999 3.715 8.71499 4.5 7.74999 4.5ZM2.74999 13.75C1.78499 13.75 0.999993 12.965 0.999993 12C0.999993 11.035 1.78499 10.25 2.74999 10.25C3.71499 10.25 4.49999 11.035 4.49999 12C4.49999 12.965 3.71499 13.75 2.74999 13.75ZM11.751 15C9.95899 15 8.50099 13.542 8.50099 11.75C8.50099 9.958 9.95899 8.5 11.751 8.5C13.543 8.5 15.001 9.958 15.001 11.75C15.001 13.542 13.543 15 11.751 15ZM13.251 11.75C13.251 12.578 12.579 13.25 11.751 13.25C10.923 13.25 10.251 12.578 10.251 11.75C10.251 10.922 10.923 10.25 11.751 10.25C12.579 10.25 13.251 10.922 13.251 11.75Z" fill="rgb(34, 34, 34)" fill-opacity="1.00"/></g><defs><clipPath id="clip0_271_104"><rect width="16" height="16" fill="rgb(34, 34, 34)"/></clipPath></defs></svg>

<!-- Generated by Trend Micro Style Portal -->
<svg version="1.1" xmlns="http://www.w3.org/2000/svg" width="16" height="16" viewBox="0 0 16 16">
  <title>workbench</title>
  <path fill="rgb(34,34,34)" d="M11.751 7.5c-0.194 0-0.378 0.032-0.565 0.057l-1.761-2.64c0.649-0.503 1.074-1.282 1.074-2.167 0-1.519-1.231-2.75-2.75-2.75s-2.75 1.231-2.75 2.75 1.231 2.75 2.75 2.75c0.346 0 0.674-0.071 0.979-0.188l1.627 2.441c-1.658 0.579-2.855 2.141-2.855 3.997 0 0.1 0.023 0.193 0.029 0.291h-2.034c0-0.014 0.004-0.027 0.004-0.041 0-1.004-0.543-1.873-1.347-2.353l1.694-2.948-0.694-0.398-1.745 3.037c-0.212-0.052-0.43-0.088-0.658-0.088-1.519 0-2.75 1.231-2.75 2.75s1.231 2.75 2.75 2.75c1.224 0 2.249-0.805 2.605-1.91h2.304c0.484 1.815 2.123 3.16 4.091 3.16 2.347 0 4.25-1.903 4.25-4.25s-1.903-4.25-4.25-4.25zM7.75 4.5c-0.965 0-1.75-0.785-1.75-1.75s0.785-1.75 1.75-1.75 1.75 0.785 1.75 1.75-0.785 1.75-1.75 1.75zM2.75 13.75c-0.965 0-1.75-0.785-1.75-1.75s0.785-1.75 1.75-1.75 1.75 0.785 1.75 1.75-0.785 1.75-1.75 1.75zM11.751 15c-1.792 0-3.25-1.458-3.25-3.25s1.458-3.25 3.25-3.25 3.25 1.458 3.25 3.25-1.458 3.25-3.25 3.25zM13.251 11.75c0 0.828-0.672 1.5-1.5 1.5s-1.5-0.672-1.5-1.5 0.672-1.5 1.5-1.5 1.5 0.672 1.5 1.5z"></path>
</svg>
